icons/communication/message-smile-24.svg

<svg width="24" height="24" viewBox="0 0 24 24" fill="none" xmlns="http://www.w3.org/2000/svg">
<path d="M10.4998 9C10.4998 9.55229 10.0521 10 9.49977 10C8.94748 10 8.49977 9.55229 8.49977 9C8.49977 8.44772 8.94748 8 9.49977 8C10.0521 8 10.4998 8.44772 10.4998 9Z" fill="black"/>
<path d="M15.4998 10C16.0521 10 16.4998 9.55229 16.4998 9C16.4998 8.44772 16.0521 8 15.4998 8C14.9475 8 14.4998 8.44772 14.4998 9C14.4998 9.55229 14.9475 10 15.4998 10Z" fill="black"/>
<path d="M8.50589 12.1856C8.81664 11.9137 9.28847 11.9442 9.56163 12.2532L9.566 12.258C9.5714 12.2638 9.58155 12.2746 9.59632 12.2897C9.6259 12.3199 9.67377 12.367 9.73902 12.4254C9.86998 12.5425 10.0681 12.7026 10.3262 12.8635C10.8434 13.1859 11.5822 13.5 12.4998 13.5C13.4174 13.5 14.1561 13.1859 14.6733 12.8635C14.9314 12.7026 15.1296 12.5425 15.2605 12.4254C15.3258 12.367 15.3736 12.3199 15.4032 12.2897C15.418 12.2746 15.4281 12.2638 15.4335 12.258L15.4379 12.2532C15.7111 11.9442 16.1829 11.9137 16.4936 12.1856C16.8054 12.4583 16.837 12.9322 16.5642 13.2439L16.5538 13.2556C16.5538 13.2556 16.3525 13.4611 16.2605 13.5434C16.077 13.7075 15.8103 13.9224 15.4668 14.1365C14.7809 14.5641 13.7697 15 12.4998 15C11.2299 15 10.2186 14.5641 9.5327 14.1365C9.18923 13.9224 8.92253 13.7075 8.73903 13.5434C8.64706 13.4611 8.57529 13.391 8.52455 13.3392C8.49917 13.3132 8.47897 13.2918 8.46409 13.2757L8.44572 13.2556L8.43953 13.2486L8.43718 13.246L8.4362 13.2449C8.16343 12.9331 8.19416 12.4583 8.50589 12.1856Z" fill="black"/>
<path fill-rule="evenodd" clip-rule="evenodd" d="M3.00001 11.5C3.00001 12.8408 3.27821 14.1184 3.78057 15.2767L2.08244 19.3131C1.7836 20.0234 2.36666 20.7906 3.13105 20.6928L8.3135 20.03C9.57728 20.6513 10.9989 21 12.5 21C17.7467 21 22 16.7467 22 11.5C22 6.25329 17.7467 2 12.5 2C7.2533 2 3.00001 6.25329 3.00001 11.5ZM12.5 3.5C8.08173 3.5 4.50001 7.08172 4.50001 11.5C4.50001 12.7385 4.78091 13.9092 5.28177 14.9539C5.39825 15.1969 5.37227 15.4713 5.23708 15.6828L3.80161 19.0948L8.34898 18.5132C8.48487 18.4958 8.61691 18.516 8.73469 18.5656C8.75906 18.5752 8.78317 18.5862 8.80691 18.5986C9.91092 19.1742 11.1663 19.5 12.5 19.5C16.9183 19.5 20.5 15.9183 20.5 11.5C20.5 7.08172 16.9183 3.5 12.5 3.5Z" fill="black"/>
</svg>

<svg xmlns="http://www.w3.org/2000/svg" width="24" height="24"><path d="M10.5 9a1 1 0 11-2 0 1 1 0 012 0zm5 1a1 1 0 100-2 1 1 0 000 2zm-6.994 2.186a.75.75 0 011.056.067l.004.005.03.032a4.304 4.304 0 00.73.574 4.095 4.095 0 002.174.636c.917 0 1.656-.314 2.173-.636a4.3 4.3 0 00.73-.574l.03-.032.005-.005a.75.75 0 011.126.99l-.01.013s-.201.205-.293.287a5.8 5.8 0 01-.794.594A5.594 5.594 0 0112.5 15a5.594 5.594 0 01-2.967-.864 5.8 5.8 0 01-1.008-.797 3.245 3.245 0 01-.06-.063l-.02-.02-.005-.007-.003-.003v-.001a.751.751 0 01.069-1.06z"/><path fill-rule="evenodd" d="M3 11.5c0 1.34.278 2.618.78 3.777l-1.698 4.036a1 1 0 001.05 1.38l5.181-.663A9.5 9.5 0 103 11.5zm9.5-8a8 8 0 00-7.218 11.454.75.75 0 01-.045.729l-1.435 3.412 4.547-.582a.746.746 0 01.458.086A8 8 0 1012.5 3.5z"/></svg>
